X:19
T:Blue ey'd Patty
N:page 16 on manuscript
M:3/4
L:1/8
K:F
cAF | C3 dcB | A3 ccA | G3 ABc | d3 efd | c>dcB AG | (Af)(Ac)(FA) | B,3 dcE | F3 |]
cAF | C3 dcB | A2 z3 F | DEFAGc | (c/B/A) z ccA | G2 z AAF | E3 GGE | D3 (E/F/) ED |
E>FGA=Bc | (G>AG)EFD | (C>=B,C)ccc | (A>GF)EFA | G3 ccc | (A>GF)FFA | G3 ABc | d3 dBA |
(B>AB)BdB | (A>Bc)AGF | (E>DE)FFD | (C>DC)dcB | A3 GAB | (c>dc)B AG | (A>G F)GAB |
c>dcBAG | (F>GF)ABc | Hd3 dcE | (F>EF)CDf | DdcBAG | F6 |]

